**kern
*staff1
*head[head1a]
*head[head1b]
*head[head1aa]
*solo1[solo1a]
*solo1[solo1b]
*solo1[solo1aa]
=1-
*clefG2
*k[]
*B-:
*M4/4
8r
*>head1a
{8B-/
4d/
4f/
8c/L
8G/J
=2
8e-/L
8g/
8b-/
[8bn/J
4.b\]
8a/
=3
8b-\
4f/
[8a-/
8a-/]
4g/
8g-/
=4
8f/L
8e/
8e-/
[8d/J
8d/L]
8c/J}
4r
=5
8r
{8B-/
4d/
4f/
8c/L
8G/J
=6
8e-/L
8g/
8b-/
[8bn/J
4.b\]
8a/
=7
8b-\
4f/
[8a-/
8a-/]
4g/
8g-/
=8
8f/L
8e-/
8d/
8B-/J}
2r
=9
2r
8r
*>head1b
{8a-/
24g-/LL
24a-/
24g-/JJ
8f/
=10:|!
8e/L
8A/
8c/
8e/J
8b-/L
8g-/
8e-/
8c/J
=11
8a/L
8d/
8e/
[8f/J
4f/]}
4r
=12
1r
=13
{12ee\L
12ff\
12ff#\J
12gg\L
12ff#\
12ffn\J
8ee\L
8cc\
8cc#\
8dd\J
=14
24b-\LL
24cc\
24b-\JJ
8a/L
8g/
8f/J
8e/L
8g/
8b-/
8dd/J
=15
4cc\
8r
8b-\
12g/L
12b-/
12g/J}
4r
=16
8r
{16c/LL
16d/J
8e-/
8f/J
8g-/L
16a-/L
16g-/J
8f/
8e-/J
=17
8d/L
8B-/J
4d/
4f/
8c/L
8G/J
=18||
8e-/L
8g/
8b-/
[8bn/J
4.b\]
8a/
=19
8b-\
4f/
[8a-/
8a-/]
4g/
8g-/
=20
8f/L
8e/
8e-/
[8d/J
8d/L]
8c/J}
4r
=21
8r
*>head1aa
{8B-/
4d/
4f/
8c/L
8G/J
=22
8e-/L
8g/
8b-/
[8bn/J
4.b\]
8a/
=23
8b-\
4f/
[8a-/
8a-/]
4g/
8g-/
=24
8f/L
8e-/
8d/
8B-/J}
2r
=25
8r
*>solo1a
{16c/LL
16B-/J
8A/
8B-/J
8c/L
8B-/
8A/
8B-/J
=26||
8d/L
8e-/
8d/
8B-/J
8c/L
8A/J
12B-/L
12d/
12f/J
=27
16a/LL
16b-/J
[8f/J
2f/]}
4r
=28
4r
{16a/LL
16g/
16f#/
16g/JJ
16b-/LL
16g/
16e-/
16d/JJ
16c/LL
16B-/
16A/
16B-/JJ
=29
16e-/LL
16g/
16e-/
16c/JJ
4f/
8r
16a-/LL
16g/JJ
16f/LL
16e-/
16d/
16c/JJ
=30
16B-/LL
16A/
16A-/
16c/JJ
4G/}
8r
{16dd\LL
16cc\JJ
16b-/LL
16g-/
16e-/
16c/JJ
=31
4d/
8r
16A/LL
16B-/JJ
16c/LL
16B-/
16A/
16B-/JJ
16d/LL
16f/
16g/
16a/JJ
=32
16cc\LL
16a\
16b-\
16cc\JJ
16dd\LL
16ff\JJ}
8r
2r
=33
8r
{8f#/
12g\L
12b-\
12dd\J
8ff\L
8ee-\
8dd\
8cc\J
=34||
8b-\L
16cc\L
16b-\J
8a\
8b-\J
8cc/L
8b-/
8g/
[8f/J
=35
4f/]
8r
8d/
24a/LL
24b-/
24a/JJ
8f/L
8d/
8A/J
=36
8A-/L
8e/
8e-/
8G/J
8B-/L
8d/
8c/
8B-/J
=37
12c/L
12e-/
12g-/J
8f/L
8e-/J
8d/L
8c/
8B-/
8A-/J
=38
4G/}
4r
2r
=39
{8g-\L
8b-\
8cc\
[8b-\J
4b-\]
8f/L
8b-/J
=40
8cc\L
[8b-\J
4b-\]}
2r
=41
4r
8r
{8d/
12f#/L
12a/
12dd/J
8ee-\L
8cc\J
=42||
4r
8b-\L
16cc\L
16b-\JJ
8a-/L
8g-/
8e-/
8d/J
=43
8a/L
8d/
8e/
[8f/J
4f/]}
4r
=44
8r
{8B-/
12Bn/L
12d/
12f/J
16b-/LL
16a-/JJ}
8r
4r
=45
4r
8r
{8d/
16f#/LL
16g/
16b-/
16dd/JJ
16ff\LL
16dd\
16ee-\
16een\JJ
=46
16cc\LL
16cc#\
16dd\
16ccn\JJ
16b-/LL
16a/
16g/
16f/JJ
16e/LL
16g/
16b-/
16dd/JJ
4a/
=47
8r
16cc\LL
16b\JJ
4b-\
8r
8a/
24g/LL
24a/
24g/JJ
8f/
=48
8e-/L
8G/
8B-/
8d/J
8c/L
8B-/J
16A/LL
16c/
16e-/
16g-/JJ
=49
4f/}
8r
*solo1aa
{8B-/
4.c/
8B-/
=50||
8d/L
8c/J
2e-/
8r
8g/
=51
8f/L
8d/J
24B-/LL
24c/
24B-/JJ
8G/
4c/}
4r
=52
2r
2r
=53
8r
{8f/
12a-\L
12cc\
12ee-\J
8gg\L
8gg-\
8ff\
8een\J
=54
8ee-\L
8b-\
8cc\
[8dd-\J
4.dd-\]
8ddn\
=55
8ee-\L
8dd\J
24b-\LL
24cc\
24b-\JJ
8f/
12a\L
12b-\
12bn\J
8cc/L
8a/J
=56
8b-\L
16cc\L
16b-\J
8a\
8g\J
8f/L
8e-/J
24d/LL
24e-/
24d/JJ
8c/
=57
8B-/L
8c/J
4G/}
2r
=58||
1r
=59
1r
=60
1r
=61
1r
=62
1r
=63
1r
=64
1r
=65
1r
=66
1r
=67
1r
=68
1r
=69
1r
=70
1r
=71
1r
=72
1r
=73
1r
=74
1r
=75
1r
=76
1r
=77
1r
=78
1r
=79
1r
=80
1r
=81
1r
=82
1r
=83
1r
=84
1r
=85
1r
=86
1r
=87
1r
=88
1r
==
*-
